X:175
T:Dashing White Sergeant
M:4/4
L:1/8
S:Colin Hume's website,  colinhume.com  - chords can also be printed below the stave.
Q:1/2=100
K:D
P:A
FE |: "D"D2D2 DEFG | "/"A2A2 A2fe | "Bm"d2B2 A2F2 | "Em"B2E2 "A7"EGFE |\
"D"D2D2 DEFG | "/"A2A2 A2f2 | "E7"e2d2 c2B2 |1 "A"A^GAB "A7"A=GFE :|2 "A"A6E2 |
P:B
"A"A2AB c2cd | "/"e2ec A4 | "Bm"B2Bc d2de | "/"f2fd B4 |\
"A"c2A2 d2A2 | "/"e2A2 f2A2 | "Em"g2f2 e2d2 | "A7"c2B2 A2G2 |
"D"F2d2 dc2/de | "/"d2A2 A4 | "Em"B2e2 e^def | "/"e2B2 B4 |\
"D"A2d2 dcde | "Bm"f2d2 dcde | "D/A"f4 "A7"a4 | "D"d2cB AG |]

